svgs/thin/tombstone.svg

<svg xmlns="http://www.w3.org/2000/svg" viewBox="0 0 448 512"><!--! Font Awesome Pro 6.3.0 by @fontawesome - https://fontawesome.com License - https://fontawesome.com/license (Commercial License) Copyright 2023 Fonticons, Inc. --><path d="M40 464c4.406 0 8-3.578 8-8V192c0-97.05 78.97-176 176-176s176 78.95 176 176v264c0 4.422 3.594 8 8 8S416 460.4 416 456l-.0012-264C415.1 86.12 329.9 0 223.1 0S31.1 86.13 31.1 192L32 456C32 460.4 35.59 464 40 464zM224 360c4.406 0 8-3.578 8-8V200H320c4.406 0 8-3.578 8-8s-3.607-8.005-8.014-8.005L232 184V96c0-4.422-3.594-8-8-8S216 91.58 216 96v88L127.1 184C123.6 184 120 187.6 120 192S123.6 200 128 200h88V352C216 356.4 219.6 360 224 360zM440 496H8C3.594 496 0 499.6 0 504S3.594 512 8 512h432c4.406 0 8-3.578 8-8S444.4 496 440 496z"/></svg>

<svg xmlns="http://www.w3.org/2000/svg" viewBox="0 0 448 512"><!-- Font Awesome Pro 6.0.0-alpha2 by @fontawesome - https://fontawesome.com License - https://fontawesome.com/license (Commercial License) --><path d="M40 464C44.406 464 48 460.422 48 456V192C48 94.953 126.969 16 224 16S400 94.953 400 192V456C400 460.422 403.594 464 408 464S416 460.422 416 456V192C416 86.125 329.875 0 224 0S32 86.125 32 192V456C32 460.422 35.594 464 40 464ZM224 360C228.406 360 232 356.422 232 352V200H320C324.406 200 328 196.422 328 192S324.406 184 320 184H232V96C232 91.578 228.406 88 224 88S216 91.578 216 96V184H128C123.594 184 120 187.578 120 192S123.594 200 128 200H216V352C216 356.422 219.594 360 224 360ZM440 496H8C3.594 496 0 499.578 0 504S3.594 512 8 512H440C444.406 512 448 508.422 448 504S444.406 496 440 496Z"/></svg>
